X:485
T:Polska # 485
T: efter Melker Andersson
M:3/4
L:1/16
K: D
Q: 110
dfff Addd FAAA| GBBB FAAA EAAA| DEFG ABcd efge| d3f (ed)cB A4|
dfff Addd FAAA| GBBB FAAA EAAA| DEFG ABcd e2f2| (gf)ed c2d2 d4:|
|: fdAd fdAd f2a2| (ba)gf g2e2 e4| ecAc  ecAc e2a2| (ag)eg f2d2 d4|
fdAd fdAd f2a2| (ba)gf g2e2 e4| ecAc  ecAc e2a2| (ag)eg f2d2 d4|
dfff Addd FAAA| GBBB FAAA EAAA| DEFG ABcd e2f2| (gf)ed c2d2 d4:|

